X: 61
T: Pollonesse #61
M: 3/4
L: 1/16
K: Bb
Q:120
|B2df b2fe d2cB| B2g2 g4 f4| f2bf d2fd B2Bd|cdcB ABcA F4|
B2df b2fe d2cB|B2g2 g4 f4|f2bf d2fd B2Bd| F2c2 c4 B4:|
DBFB DBFB DBFB|DBFB GFED E4|EBGB EBGB EBGB|ABcd cBAG F4|
B2df b2fe d2cB|B2g2 g4 f4|f2bf d2fd B2Bd| F2c2 c4 B4:|
N: Jämför nr. 56

